src/shared/assets/icons/ic-arrow-right.svg

<svg width="24" height="24" viewBox="0 0 24 24" fill="none" xmlns="http://www.w3.org/2000/svg">
<path d="M18.5186 11.1246L18.6201 11.1295C19.1246 11.1805 19.5186 11.6067 19.5186 12.1246C19.5186 12.6425 19.1246 13.0687 18.6201 13.1197L18.5186 13.1246L5 13.1246C4.44772 13.1246 4 12.6769 4 12.1246C4 11.5723 4.44772 11.1246 5 11.1246L18.5186 11.1246Z" fill="black"/>
<path d="M15.5167 17.6383C15.15 18.0512 14.5176 18.089 14.1046 17.7223C13.6919 17.3557 13.6543 16.7241 14.0206 16.3111L15.5167 17.6383ZM14.0782 6.55038C14.4526 6.19273 15.0318 6.18304 15.4171 6.5123L15.4913 6.58261L19.9562 11.2564C20.2931 11.6092 20.3243 12.149 20.0421 12.5357L19.9816 12.6109L15.5167 17.6383L14.0206 16.3111L17.8732 11.9713L14.046 7.96347L13.9786 7.88632C13.6674 7.48634 13.7039 6.90803 14.0782 6.55038Z" fill="black"/>
</svg>

<svg xmlns="http://www.w3.org/2000/svg" fill="none" viewBox="0 0 24 24"><path fill="#000" d="m18.519 11.125.101.005a1 1 0 0 1 0 1.99l-.101.005H5a1 1 0 1 1 0-2z"/><path fill="#000" d="M15.517 17.638a1 1 0 0 1-1.496-1.327zM14.078 6.55a1 1 0 0 1 1.34-.038l.073.07 4.465 4.674a1 1 0 0 1 .086 1.28l-.06.075-4.465 5.027-1.496-1.327 3.852-4.34-3.827-4.008-.067-.077a1 1 0 0 1 .1-1.336"/></svg>
